docs/images/handlebars.fe5ec6859ae8032d593af6d3cb069495.svg

<svg width="480" height="300" xmlns="http://www.w3.org/2000/svg"><path fill="#fff" d="M0 0h480v300H0V0z"/><path fill="#423426" d="M131.02 19.82c14.14-9.48 30.8-15.89 47.99-15.81 16.07-.07 32.55 4.54 45.04 14.93 6.4 5.18 11.57 11.68 15.96 18.6 7.9-12.77 19.44-23.62 33.67-28.85 17.34-6.51 36.94-6.06 54.25.32 15.12 5.52 28.34 15.14 40.33 25.72 9.38 8.28 18.06 17.34 27.72 25.31 5.09 4.13 10.56 8 16.82 10.14 8.32 2.84 18.16.16 24.11-6.25 5.51-6 5.17-16.37-.9-21.85-3.86-3.33-10.46-2.66-13.19 1.78-2.39 3.52-1.05 7.91.82 11.32-4.97-3.63-9.95-8.69-9.93-15.29-1.03-7.63 4.63-14.36 11.41-17.03 13.23-5.29 29.82-.73 38.17 10.92 8.03 10.87 8.67 25.16 7.27 38.11-1.69 12.3-8.57 23.78-18.77 30.9-14.32 10.22-32.47 13.39-49.74 13.17-16.6-.45-33.03-4.2-48.41-10.4-25.72-10.34-49.79-24.63-76.35-32.89-8.81-3.42-18.18-5.27-27.6-5.84.02 55.4-.1 110.81-.01 166.22-.07 18.46.17 36.94-.11 55.39-.14-2.15-.27-4.3-.32-6.44.16-71.78.07-143.55.04-215.33-7.1.11-14.21-.24-21.29.24-8.64.83-17.23 2.6-25.32 5.77-27.01 8.4-51.44 23.05-77.65 33.41-22.13 8.61-46.65 12.61-70.14 7.83-13.14-2.66-26.22-8.47-35.09-18.82-7.59-8.8-11.23-20.58-10.87-32.12-.42-10.89 1.97-22.46 9.17-30.94C24.8 24 35.59 19.92 45.95 20.82c6.67.31 13.43 3.22 17.55 8.59 3.24 4.25 3.44 10.07 2.02 15.04-1.73 4.47-5.3 7.96-9.18 10.64 1.98-3.34 3.18-7.75.84-11.24-2.88-4.65-9.97-5.12-13.72-1.3-4.62 4.75-5.59 12.51-2.49 18.33 3.36 6.1 10.31 9.58 17.04 10.29 10.18.88 19.01-5.43 26.48-11.55 15.46-13.31 29.38-28.54 46.53-39.8z"/><path fill="#bab4b1" d="M228 66.91c7.08-.48 14.19-.13 21.29-.24.03 71.78.12 143.55-.04 215.33.05 2.14.18 4.29.32 6.44.05 1.31-.96 2.3-1.69 3.26l-.15.19c-3.33 5.46-11.63 5.57-16.08 1.5-3.02-2.9-3.74-7.38-3.68-11.38.04-49 .58-98.01.17-147.01-.13-22.7-.16-45.4-.14-68.09z"/><path fill="#423426" d="M247.73 291.89l.15-.19-.15.19z"/></svg>

<?xml version="1.0" encoding="UTF-8" ?>
<!DOCTYPE svg PUBLIC "-//W3C//DTD SVG 1.1//EN" "http://www.w3.org/Graphics/SVG/1.1/DTD/svg11.dtd">
<svg width="480" height="300" viewBox="0 0 480 300" version="1.1" xmlns="http://www.w3.org/2000/svg">
  <path fill="#ffffff" d=" M 0.00 0.00 L 480.00 0.00 L 480.00 300.00 L 0.00 300.00 L 0.00 0.00 Z" />
  <path fill="#423426" d=" M 131.02 19.82 C 145.16 10.34 161.82 3.93 179.01 4.01 C 195.08 3.94 211.56 8.55 224.05 18.94 C 230.45 24.12 235.62 30.62 240.01 37.54 C 247.91 24.77 259.45 13.92 273.68 8.69 C 291.02 2.18 310.62 2.63 327.93 9.01 C 343.05 14.53 356.27 24.15 368.26 34.73 C 377.64 43.01 386.32 52.07 395.98 60.04 C 401.07 64.17 406.54 68.04 412.80 70.18 C 421.12 73.02 430.96 70.34 436.91 63.93 C 442.42 57.93 442.08 47.56 436.01 42.08 C 432.15 38.75 425.55 39.42 422.82 43.86 C 420.43 47.38 421.77 51.77 423.64 55.18 C 418.67 51.55 413.69 46.49 413.71 39.89 C 412.68 32.26 418.34 25.53 425.12 22.86 C 438.35 17.57 454.94 22.13 463.29 33.78 C 471.32 44.65 471.96 58.94 470.56 71.89 C 468.87 84.19 461.99 95.67 451.79 102.79 C 437.47 113.01 419.32 116.18 402.05 115.96 C 385.45 115.51 369.02 111.76 353.64 105.56 C 327.92 95.22 303.85 80.93 277.29 72.67 C 268.48 69.25 259.11 67.40 249.69 66.83 C 249.71 122.23 249.59 177.64 249.68 233.05 C 249.61 251.51 249.85 269.99 249.57 288.44 C 249.43 286.29 249.30 284.14 249.25 282.00 C 249.41 210.22 249.32 138.45 249.29 66.67 C 242.19 66.78 235.08 66.43 228.00 66.91 C 219.36 67.74 210.77 69.51 202.68 72.68 C 175.67 81.08 151.24 95.73 125.03 106.09 C 102.90 114.70 78.38 118.70 54.89 113.92 C 41.75 111.26 28.67 105.45 19.80 95.10 C 12.21 86.30 8.57 74.52 8.93 62.98 C 8.51 52.09 10.90 40.52 18.10 32.04 C 24.80 24.00 35.59 19.92 45.95 20.82 C 52.62 21.13 59.38 24.04 63.50 29.41 C 66.74 33.66 66.94 39.48 65.52 44.45 C 63.79 48.92 60.22 52.41 56.34 55.09 C 58.32 51.75 59.52 47.34 57.18 43.85 C 54.30 39.20 47.21 38.73 43.46 42.55 C 38.84 47.30 37.87 55.06 40.97 60.88 C 44.33 66.98 51.28 70.46 58.01 71.17 C 68.19 72.05 77.02 65.74 84.49 59.62 C 99.95 46.31 113.87 31.08 131.02 19.82 Z" />
  <path fill="#bab4b1" d=" M 228.00 66.91 C 235.08 66.43 242.19 66.78 249.29 66.67 C 249.32 138.45 249.41 210.22 249.25 282.00 C 249.30 284.14 249.43 286.29 249.57 288.44 C 249.62 289.75 248.61 290.74 247.88 291.70 C 247.84 291.75 247.77 291.84 247.73 291.89 C 244.40 297.35 236.10 297.46 231.65 293.39 C 228.63 290.49 227.91 286.01 227.97 282.01 C 228.01 233.01 228.55 184.00 228.14 135.00 C 228.01 112.30 227.98 89.60 228.00 66.91 Z" />
  <path fill="#423426" d=" M 247.73 291.89 C 247.77 291.84 247.84 291.75 247.88 291.70 C 247.84 291.75 247.77 291.84 247.73 291.89 Z" />
</svg>
